svg/fluentui-system-icons/ic_fluent_document_print_20_filled.svg

<svg width="20" height="20" viewBox="0 0 20 20" fill="none" xmlns="http://www.w3.org/2000/svg">
<path d="M10 2V6.5C10 7.32843 10.6716 8 11.5 8H16V16.5C16 17.3284 15.3284 18 14.5 18H9C10.1046 18 11 17.1046 11 16V13.5C11 12.2758 10.12 11.2571 8.95812 11.0419C8.74294 9.87996 7.72423 9 6.5 9H4.5C4.32877 9 4.16156 9.01722 4 9.05001V3.5C4 2.67157 4.67157 2 5.5 2H10ZM11 2.25V6.5C11 6.77614 11.2239 7 11.5 7H15.75L11 2.25ZM4.5 10C3.67157 10 3 10.6716 3 11.5V12H2.5C1.67157 12 1 12.6716 1 13.5V16C1 16.5523 1.44772 17 2 17H3V17.5C3 18.3284 3.67157 19 4.5 19H6.5C7.32843 19 8 18.3284 8 17.5V17H9C9.55229 17 10 16.5523 10 16V13.5C10 12.6716 9.32843 12 8.5 12H8V11.5C8 10.6716 7.32843 10 6.5 10H4.5ZM7 12H4V11.5C4 11.2239 4.22386 11 4.5 11H6.5C6.77614 11 7 11.2239 7 11.5V12ZM4.5 16H6.5C6.77614 16 7 16.2239 7 16.5V17.5C7 17.7761 6.77614 18 6.5 18H4.5C4.22386 18 4 17.7761 4 17.5V16.5C4 16.2239 4.22386 16 4.5 16Z" fill="#212121"/>
</svg>

<svg xmlns="http://www.w3.org/2000/svg" width="20" height="20"><path d="M10 2v4.5A1.5 1.5 0 0 0 11.5 8H16v8.5a1.5 1.5 0 0 1-1.5 1.5H9a2 2 0 0 0 2-2v-2.5a2.5 2.5 0 0 0-2.042-2.458A2.5 2.5 0 0 0 6.5 9h-2c-.171 0-.338.017-.5.05V3.5A1.5 1.5 0 0 1 5.5 2H10Zm1 .25V6.5a.5.5 0 0 0 .5.5h4.25L11 2.25ZM4.5 10A1.5 1.5 0 0 0 3 11.5v.5h-.5A1.5 1.5 0 0 0 1 13.5V16a1 1 0 0 0 1 1h1v.5A1.5 1.5 0 0 0 4.5 19h2A1.5 1.5 0 0 0 8 17.5V17h1a1 1 0 0 0 1-1v-2.5A1.5 1.5 0 0 0 8.5 12H8v-.5A1.5 1.5 0 0 0 6.5 10h-2ZM7 12H4v-.5a.5.5 0 0 1 .5-.5h2a.5.5 0 0 1 .5.5v.5Zm-2.5 4h2a.5.5 0 0 1 .5.5v1a.5.5 0 0 1-.5.5h-2a.5.5 0 0 1-.5-.5v-1a.5.5 0 0 1 .5-.5Z"/></svg>
